X: 21
T: Bayrischer Bauer [F]
T: Maderl
R: zweifacher
M: 32/44
L: 1/8
%%partsspace 0
K: F
%%indent 400
"intro"| "F"[c3A3] [BG] [A2F2] | [A2F2] [B2G2] [c2A2] | "Bb"[d4B4] "C7"[GB,][AC] | "F"[F2A,2] z ||
|: [CA,][FC][AF] \
|  "F"[c3A3] [BG] [A2F2] | [A2F2] [B2G2] [c2A2] \
| "Bb"[d4B4] | "C7"[G4E4] \
|     [B3G3] [AF] [G2E2] | [E2G2] [A2F2] [B2G2] \
|  "F"[c4A4] | [A4F4] \
|     [FC][AF] [A2F2] [GE][FD] | "C7"[E4C4] [C2B,2] |
| "C7"[GB,][BD] [B2D2] [AC][GB,] | "F"[F4A,4] [A2C2] \
|     [A2F2] [c2A2] | "Bb"[B2G2] [d2F2] \
| "C7"[G2E2] [BG][AF] [G2E2] | "F"[A2F2] [c2A2] \
|     [F2C2] [A2F2] | "C7"[GE][AF] [B2G2] [E2B,2] | "F"[F2A,2] z :|
%%sep 2 1 500
